icons/slack.svg

<svg fill="none" height="12" viewBox="0 0 12 12" width="12" xmlns="http://www.w3.org/2000/svg"><rect fill="#4a154b" height="12" rx="2.5" width="12"/><path d="m3.71341 7.03937c0 .45984-.37166.83149-.8315.83149s-.83149-.37165-.83149-.83149c0-.45985.37165-.8315.83149-.8315h.8315zm.41575 0c0-.45985.37165-.8315.83149-.8315s.8315.37165.8315.8315v2.07874c0 .45984-.37166.83149-.8315.83149s-.83149-.37165-.83149-.83149z" fill="#e01e5a"/><path d="m4.9606 3.70079c-.45984 0-.83149-.37166-.83149-.8315s.37165-.83149.83149-.83149c.45985 0 .8315.37165.8315.83149v.8315zm0 .42205c.45985 0 .8315.37165.8315.83149s-.37165.8315-.8315.8315h-2.08504c-.45984 0-.83149-.37166-.83149-.8315s.37165-.83149.83149-.83149z" fill="#36c5f0"/><path d="m8.29297 4.95433c0-.45984.37166-.83149.8315-.83149s.8315.37165.8315.83149-.37166.8315-.8315.8315h-.8315zm-.41574 0c0 .45984-.37166.8315-.8315.8315s-.8315-.37166-.8315-.8315v-2.08504c0-.45984.37166-.83149.8315-.83149s.8315.37165.8315.83149z" fill="#2eb67d"/><path d="m7.04573 8.28661c.45984 0 .8315.37165.8315.8315 0 .45984-.37166.83149-.8315.83149s-.8315-.37165-.8315-.83149v-.8315zm0-.41575c-.45984 0-.8315-.37165-.8315-.83149 0-.45985.37166-.8315.8315-.8315h2.08504c.45984 0 .83149.37165.83149.8315 0 .45984-.37165.83149-.83149.83149z" fill="#ecb22e"/></svg>

<svg width="12" height="12" viewBox="0 0 12 12" fill="none" xmlns="http://www.w3.org/2000/svg">
<rect width="12" height="12" rx="2" fill="#4A154B"/>
<g clip-path="url(#clip0_210_236)">
<path d="M3.71329 7.03937C3.71329 7.49921 3.34163 7.87086 2.88179 7.87086C2.42195 7.87086 2.05029 7.49921 2.05029 7.03937C2.05029 6.57952 2.42195 6.20787 2.88179 6.20787H3.71329V7.03937ZM4.12903 7.03937C4.12903 6.57952 4.50069 6.20787 4.96053 6.20787C5.42037 6.20787 5.79203 6.57952 5.79203 7.03937V9.11811C5.79203 9.57795 5.42037 9.9496 4.96053 9.9496C4.50069 9.9496 4.12903 9.57795 4.12903 9.11811V7.03937Z" fill="#E01E5A"/>
<path d="M4.96072 3.70079C4.50088 3.70079 4.12923 3.32913 4.12923 2.86929C4.12923 2.40945 4.50088 2.0378 4.96072 2.0378C5.42057 2.0378 5.79222 2.40945 5.79222 2.86929V3.70079H4.96072ZM4.96072 4.12284C5.42057 4.12284 5.79222 4.49449 5.79222 4.95433C5.79222 5.41417 5.42057 5.78583 4.96072 5.78583H2.87569C2.41584 5.78583 2.04419 5.41417 2.04419 4.95433C2.04419 4.49449 2.41584 4.12284 2.87569 4.12284H4.96072Z" fill="#36C5F0"/>
<path d="M8.29285 4.95433C8.29285 4.49449 8.6645 4.12284 9.12435 4.12284C9.58419 4.12284 9.95584 4.49449 9.95584 4.95433C9.95584 5.41417 9.58419 5.78583 9.12435 5.78583H8.29285V4.95433ZM7.8771 4.95433C7.8771 5.41417 7.50545 5.78583 7.04561 5.78583C6.58576 5.78583 6.21411 5.41417 6.21411 4.95433V2.86929C6.21411 2.40945 6.58576 2.0378 7.04561 2.0378C7.50545 2.0378 7.8771 2.40945 7.8771 2.86929V4.95433Z" fill="#2EB67D"/>
<path d="M7.04561 8.28661C7.50545 8.28661 7.8771 8.65826 7.8771 9.11811C7.8771 9.57795 7.50545 9.9496 7.04561 9.9496C6.58576 9.9496 6.21411 9.57795 6.21411 9.11811V8.28661H7.04561ZM7.04561 7.87086C6.58576 7.87086 6.21411 7.49921 6.21411 7.03937C6.21411 6.57952 6.58576 6.20787 7.04561 6.20787H9.13065C9.59049 6.20787 9.96214 6.57952 9.96214 7.03937C9.96214 7.49921 9.59049 7.87086 9.13065 7.87086H7.04561Z" fill="#ECB22E"/>
</g>
<defs>
<clipPath id="clip0_210_236">
<rect width="8" height="8" fill="white" transform="translate(2 2)"/>
</clipPath>
</defs>
</svg>
